app/dist/common/images/zerofox.svg

<svg height="18" viewBox="0 0 18 18" width="18" xmlns="http://www.w3.org/2000/svg"><path d="m0 0h18v18h-18z" fill="#f0f3fa"/><path d="m9.8 8 1.2-1.25v2.41l.77.56-2.32 2.28h-.45v-4h.81z" fill="#ba0c2f"/><path d="m8.2 8-1.2-1.25v2.41l-.76.56 2.31 2.28h.45v-4z" fill="#e4002b"/><path d="m5.01 13.47.63-.97c-1-.95-1.65-2.3-1.64-3.5.03-2.45 2.3-5.02 5.05-5 .73 0 1.55.34 2.23.7l.66-.91a5.97 5.97 0 0 0 -6.93 9.68z" fill="#ba0c2f"/><path d="m13 4.53-.6.84c.94.93 1.6 2.4 1.6 3.63 0 2.4-2.58 4.96-4.97 5a5.37 5.37 0 0 1 -2.36-.7l-.65.9a6 6 0 0 0 6.97-9.67z" fill="#e4002b"/></svg>

<!-- by TradingView --><svg width="18" height="18" viewBox="0 0 18 18" xmlns="http://www.w3.org/2000/svg"><path fill="#F0F3FA" d="M0 0h18v18H0z"/><path d="M9.8 8 11 6.75v2.41l.77.56L9.45 12H9V8h.81Z" fill="#BA0C2F"/><path d="M8.2 8 7 6.75v2.41l-.76.56L8.55 12H9V8H8.2Z" fill="#E4002B"/><path d="m5.01 13.47.63-.97c-1-.95-1.65-2.3-1.64-3.5.03-2.45 2.3-5.02 5.05-5 .73 0 1.55.34 2.23.7l.66-.91a5.97 5.97 0 0 0-6.93 9.68Z" fill="#BA0C2F"/><path d="m13 4.53-.6.84C13.34 6.3 14 7.77 14 9c0 2.4-2.58 4.96-4.97 5a5.37 5.37 0 0 1-2.36-.7l-.65.9a6 6 0 0 0 6.97-9.67Z" fill="#E4002B"/></svg>
